X:1
T:Title
%%score 1 { 2 | 3 }
L:1/8
Q:1/4=120
M:3/4
K:Bb
V:1 treble nm="MusicXML Part"
V:2 treble nm="MusicXML Part"
V:3 bass 
V:1
"^Splitter-Richter   TWV 25, No. 43""^Singe-, Spiel und Generalbaßübungen (1733/34)" c<=B"^Georg Philipp Telemann (1681-1767)" c/ | %1
w: Magst du, was|
 d>e d2 =B2 | c3 z/ G/ F>E | _A>G (F2 G>)A | G>F E>G c>e | A>B (c2 d>)e | d>c B>d c>A | %7
w: mei- ne feh- ler|sind, von mei- nem|fein- de ger * ne|hö * ren, so lass auch|mei- nen freund * dich|leh * ren, was man für|
 B>G T^F3 G | G3 z/ :: B<E _d/ | c>B _A2 G2 | _A>B c>_d c>B | c>F _A2 G2 | F3 z/ A/ B>_A | %14
w: gu- tes an mir|findt.|Spricht man dort|ü- bel oh- ne|ma * sse, schreibt man mir|hier was gött- lichs|zu, so wäh- le|
 G>=B c2 _B2 | B2 A>c =B>c | d>e d2 =B2 | c3 z/ :| %18
w: du die mi- ttel-|stra- sse; ge- denk: ich|bin ein mensch, wie|du.|
V:2
 [CGc]<[FG=B] [EGc]/ | [DGd]>[EGc] [D_Ad]2 [DG=B]2 | [EGc]2 [EGc]2 z2 | %3
 [F_AB]>[EGB] [EFc]2 [DFB]2 | [B,EG]3 z/ [EGB]<[CGc][EGc]/ | [CFA]>[DFB] [CGB]2 [CFA]2 | %6
 [DFB]2 [FBd]>[DGd][EGc]>[D^FA] | [DGB]>[EGc] [DGB]2 [D^FA]2 | [DGB]3 z/ :: [B,EB]<[B,EB] [EGB]/ | %10
 [CE_A]>[C=EB] [CFA]2 [CGc]2 | [CF_A]2 [CFc]2 [CFc]2 | [CFc]>[FGB] [F_Ac]2 [=EGc]2 | %13
 [CF_A]2 [CF=A]2 [B,FB]2 | [B,EG]>[DF=B] [EGc]2 [G_Bc]2 | [FBc]2 [FAc]>[CGc] [FG=B]>[EGc] | %16
 [DGd]>[EGc] [D_Ad]2 [DG=B]2 | [EGc]3 z/ :| %18
V:3
"^6" E,<"^6"D, C,/ |"^6" =B,,>C,"^6" F,2 G,2 | C,3 z/ E,<D,C,/ |"^6\n5" D,>E,"^6\n5" _A,,2 B,,2 | %4
 E,3 z/ E,<"^6"E,C,/ | F,>"^6"D,"^6\n5" E,2 F,2 | B,2 B,,>"^6"B,"^7"A,>D, | G,>C, D,2 D,,2 | %8
 G,,3 z/ ::"^6" G,<G, E,/ | _A,>"^6"G, F,2"^6" =E,2 | F,>G,"^6"_A,>B,"^6"A,>G, | %12
"^6" _A,>"^6"_D,"^6\n4" C,2"^5" C,,2 | F,,>F,"^4\n2" E,2"^6" D,2 | E,>"^6"D, C,2"^6\n5" =E,2 | %15
"^5\n4" F,2"^3" F,,>"^6"E,"^6" D,>C, |"^6" =B,,>C,"^6" F,,2 G,,2 | C,,3 z/ :| %18

